X: 10
T:The Blessings of Silver
R:Reel
C:Ed Reavy
S:The Collected Compositions of Ed Reavy
M:4/4
L:1/8
Z:Joe Reavy
N:The Blessings of Silver. Written 
N:for Lou and Mary Quinn's 
N:twenty-fifth wedding anniversary. 
N:Ed loved the connotations of 
N:the title: the blessings of twenty-five 
N:years of marriage, the blessings of a 
N:couple growing old together, and the many rewards 
N:of family life. Ed admired Lou not 
N:only because of his musical talent, but also because he 
N:was a self-made man who set high standards 
N:for other immigrants who followed him to the New World.
K:Bb
g>A|BdBF DGGF|(3d=EF CF DFCF|DFFA Bcdg|{a}g^fdf fdcA|
Bdce dcBA|DGBG ^FDCA,|DFFA Bcdg ^fdcA G3:|g|bfa^f gfdc|
=bcd=e fdcd|bga=e f2 ge|fdcA BG[G,G]g|(3bag (3ag^f gfdc|
=Bcd=e {fg}fefa|gbag ^fag-e|1=fdcA BGG:|2=fdcA BDD||
